X: 2849
T: Bare Assed, The
R: barndance
M: 4/4
K: Gmajor
|:(3DEF|G2 G>A G>E D2|G>FG>A B<dd>g|e2 d>g e<dB>d|g>ed>B A<GE>F|
G2 G>A G<E D2|G>FG>A B<d d2|e<ge>d B>^A (3Bcd|g<ed>B G2:|
|:(3Bcd|e2 e>^d e>f g2|e>d (3Bcd e>f g2|e>dB<d g>d (3Bcd|
[1 e>Gd>G A>G (3EFG|e2 e>^d e>f g2|e>d (3Bcd e>fg>d|e<Gd>G g>d (3Bcd|e<Gd>B G2:|
[2 g>Gd>G A>F (3DEF|(3GAG D>A G<E D2|G2 (3FGA B<d d2|e<ge>d B>^AB<d|g<ed>B G2||

